SVG_Azure_Grouped/Networking/Geo Replication.svg

<?xml version="1.0" encoding="UTF-8" standalone="no"?>
<!-- Generated by Microsoft Visio, SVG Export Geo Replication.svg Page-1 -->

<svg
   xmlns:dc="http://purl.org/dc/elements/1.1/"
   xmlns:cc="http://creativecommons.org/ns#"
   xmlns:rdf="http://www.w3.org/1999/02/22-rdf-syntax-ns#"
   xmlns:svg="http://www.w3.org/2000/svg"
   xmlns="http://www.w3.org/2000/svg"
   xmlns:sodipodi="http://sodipodi.sourceforge.net/DTD/sodipodi-0.dtd"
   xmlns:inkscape="http://www.inkscape.org/namespaces/inkscape"
   width="0.68061858in"
   height="0.80392915in"
   viewBox="0 0 49.004295 57.883285"
   xml:space="preserve"
   class="st5"
   version="1.1"
   id="svg39"
   sodipodi:docname="Geo Replication.svg"
   style="font-size:12px;overflow:visible;color-interpolation-filters:sRGB;fill:none;fill-rule:evenodd;stroke-linecap:square;stroke-miterlimit:3"
   inkscape:version="0.92.5 (2060ec1f9f, 2020-04-08)"><metadata
   id="metadata45"><rdf:RDF><cc:Work
       rdf:about=""><dc:format>image/svg+xml</dc:format><dc:type
         rdf:resource="http://purl.org/dc/dcmitype/StillImage" /></cc:Work></rdf:RDF></metadata><defs
   id="defs43" /><sodipodi:namedview
   pagecolor="#ffffff"
   bordercolor="#666666"
   borderopacity="1"
   objecttolerance="10"
   gridtolerance="10"
   guidetolerance="10"
   inkscape:pageopacity="0"
   inkscape:pageshadow="2"
   inkscape:window-width="640"
   inkscape:window-height="480"
   id="namedview41"
   showgrid="false"
   inkscape:zoom="1.7278016"
   inkscape:cx="33.541236"
   inkscape:cy="22.940324"
   inkscape:window-x="0"
   inkscape:window-y="0"
   inkscape:window-maximized="0"
   inkscape:current-layer="svg39" />
	<style
   type="text/css"
   id="style2">
	<![CDATA[
		.st1 {fill:#ff8c00;stroke:none;stroke-linecap:butt;stroke-width:12.24}
		.st2 {fill:#fcd116;stroke:none;stroke-linecap:butt;stroke-width:12.24}
		.st3 {fill:#59b4d9;stroke:#59b4d9;stroke-linecap:butt;stroke-width:2.83968}
		.st4 {fill:#b8d432;stroke:none;stroke-linecap:butt;stroke-width:12.24}
		.st5 {fill:none;fill-rule:evenodd;font-size:12px;overflow:visible;stroke-linecap:square;stroke-miterlimit:3}
	]]>
	</style>

	<g
   id="g37"
   transform="translate(-10.931625,-10.543573)">
		<title
   id="title4">Page-1</title>
		<g
   id="group17962-1"
   transform="translate(11.7456,-34.0157)">
			<title
   id="title6">Geo Replication.17962</title>
			<g
   id="group17963-2">
				<title
   id="title8">g14</title>
				<g
   id="shape17964-3"
   transform="translate(10.4008)">
					<title
   id="title10">path4</title>
					<path
   d="M 13.02,91.6 H 8.71 C 9.75,98.1 6.15,99.04 0,99.04 v 3.4 h 20.92 v -3.4 c -6.15,0 -8.94,-0.93 -7.9,-7.44 z"
   class="st1"
   id="path12"
   inkscape:connector-curvature="0"
   style="fill:#ff8c00;stroke:none;stroke-width:12.23999977;stroke-linecap:butt" />
				</g>
				<g
   id="shape17965-5"
   transform="translate(10.403)">
					<title
   id="title15">path6</title>
					<rect
   x="0"
   y="99.0355"
   width="20.922899"
   height="3.4070599"
   class="st2"
   id="rect17"
   style="fill:#fcd116;stroke:none;stroke-width:12.23999977;stroke-linecap:butt" />
				</g>
				<g
   id="shape17966-7"
   transform="translate(0.598702,-12.9686)">
					<title
   id="title20">path8</title>
					<path
   d="m 22.8,93.98 a 2.52919,2.60137 0 0 1 3.58,0 l -4,-4.11 a 2.5306978,2.6029189 0 1 1 3.58,-3.68 l 1.06,1.09 0.83,0.77 1.95,2.01 a 2.5306978,2.6029189 -180 0 0 3.58,-3.68 L 31.42,84.37 30.18,83.1 24.23,76.98 a 2.5306978,2.6029189 0 1 1 3.58,-3.68 l 2.61,2.68 a 2.52926,2.60144 0 1 1 3.57,-3.68 l 6.77,6.96 A 20.3537,20.9345 -180 0 0 34.8,65.38 20.3602,20.9413 -180 0 0 22.42,59.34 l 3.03,3.12 a 3.19132,3.28239 0 0 1 -4.51,4.64 l -2.07,-2.14 a 3.1964711,3.2876881 -180 0 0 -4.52,4.65 l 4.09,4.2 a 3.19132,3.28239 0 0 1 -4.51,4.64 L 9.44,73.84 a 3.19017,3.2812 0 0 1 -5.16,3.68 l 3.27,3.36 A 3.19132,3.28239 0 0 1 3.04,85.52 L 0,82.4 a 20.357,20.9379 -180 0 0 5.88,12.73 c 5.35,5.5 12.93,7.31 19.75,5.44 L 22.8,97.66 a 2.53137,2.60361 0 0 1 0,-3.68 z"
   class="st3"
   id="path22"
   inkscape:connector-curvature="0"
   style="fill:#59b4d9;stroke:#59b4d9;stroke-width:2.83967996;stroke-linecap:butt" />
				</g>
				<g
   id="shape17967-9"
   transform="translate(0,-14.843)">
					<title
   id="title25">path10</title>
					<path
   d="M 41.36,81.14 34.6,74.18 a 2.52926,2.60144 -180 1 0 -3.58,3.67 l -2.61,-2.68 a 2.5306978,2.6029189 -180 1 0 -3.58,3.68 l 5.96,6.12 1.23,1.28 1.96,2.01 a 2.5306978,2.6029189 0 0 1 -3.58,3.68 l -1.95,-2.02 -0.83,-0.77 -1.06,-1.09 a 2.5306978,2.6029189 -180 1 0 -3.58,3.68 l 4,4.11 a 2.5306978,2.6029189 -180 0 0 -3.58,3.68 l 2.83,2.91 A 20.3428,20.9233 -180 0 0 35.4,97 20.4007,20.9829 -180 0 0 41.36,81.14 Z M 8.15,87.39 a 3.19017,3.2812 -180 0 0 0,-4.64 L 4.88,79.39 a 3.19017,3.2812 -180 1 0 5.16,-3.68 l 4.49,4.61 a 3.19132,3.28239 -180 0 0 4.51,-4.64 l -4.09,-4.2 a 3.1929379,3.2840541 0 1 1 4.51,-4.65 l 2.08,2.14 a 3.19132,3.28239 -180 0 0 4.51,-4.64 L 23.02,61.21 C 17.12,60.59 11,62.61 6.48,67.26 1.96,71.91 0,78.2 0.6,84.27 l 3.03,3.12 a 3.19017,3.2812 -180 0 0 4.52,0 z"
   class="st4"
   id="path27"
   inkscape:connector-curvature="0"
   style="fill:#b8d432;stroke:none;stroke-width:12.23999977;stroke-linecap:butt" />
				</g>
				<g
   id="shape17968-11"
   transform="translate(1.67047,-7.12875)">
					<title
   id="title30">path12</title>
					<path
   d="M 19.27,102.44 C 11.99,102.44 5.15,99.53 0,94.23 a 1.9012,1.95545 0 1 1 2.69,-2.76 23.2926,23.9573 -180 0 0 16.58,7.06 23.2926,23.9573 -180 0 0 16.58,-7.06 c 4.43,-4.56 6.87,-10.61 6.87,-17.05 0,-6.45 -2.44,-12.5 -6.87,-17.06 a 1.9012,1.95545 0 0 1 2.69,-2.76 c 5.14,5.29 7.98,12.33 7.98,19.82 0,7.48 -2.84,14.52 -7.98,19.81 -5.15,5.3 -11.99,8.21 -19.27,8.21 z"
   class="st2"
   id="path32"
   inkscape:connector-curvature="0"
   style="fill:#fcd116;stroke:none;stroke-width:12.23999977;stroke-linecap:butt" />
				</g>
			</g>
		</g>
	</g>
</svg>

<?xml version="1.0" encoding="UTF-8" standalone="no"?>
<!DOCTYPE svg PUBLIC "-//W3C//DTD SVG 1.1//EN" "http://www.w3.org/Graphics/SVG/1.1/DTD/svg11.dtd">
<!-- Generated by Microsoft Visio, SVG Export Geo Replication.svg Page-1 -->
<svg xmlns="http://www.w3.org/2000/svg" xmlns:xlink="http://www.w3.org/1999/xlink" xmlns:ev="http://www.w3.org/2001/xml-events"
		width="1.00243in" height="1.42281in" viewBox="0 0 72.1746 102.443" xml:space="preserve" color-interpolation-filters="sRGB"
		class="st5">
	<style type="text/css">
	<![CDATA[
		.st1 {fill:#ff8c00;stroke:none;stroke-linecap:butt;stroke-width:12.24}
		.st2 {fill:#fcd116;stroke:none;stroke-linecap:butt;stroke-width:12.24}
		.st3 {fill:#59b4d9;stroke:#59b4d9;stroke-linecap:butt;stroke-width:2.83968}
		.st4 {fill:#b8d432;stroke:none;stroke-linecap:butt;stroke-width:12.24}
		.st5 {fill:none;fill-rule:evenodd;font-size:12px;overflow:visible;stroke-linecap:square;stroke-miterlimit:3}
	]]>
	</style>

	<g>
		<title>Page-1</title>
		<g id="group17557-1" transform="translate(11.7456,-34.0157)">
			<title>Geo Replication.17557</title>
			<g id="group17558-2">
				<title>g14</title>
				<g id="shape17559-3" transform="translate(10.4008,7.10543E-14)">
					<title>path4</title>
					<path d="M13.02 91.6 L8.71 91.6 C9.75 98.1 6.15 99.04 0 99.04 L0 102.44 L20.92 102.44 L20.92 99.04 C14.77 99.04
								 11.98 98.11 13.02 91.6 Z" class="st1"/>
				</g>
				<g id="shape17560-5" transform="translate(10.403,4.26326E-14)">
					<title>path6</title>
					<rect x="0" y="99.0355" width="20.9229" height="3.40706" class="st2"/>
				</g>
				<g id="shape17561-7" transform="translate(0.598702,-12.9686)">
					<title>path8</title>
					<path d="M22.8 93.98 A2.52919 2.60137 0 0 1 26.38 93.98 L22.38 89.87 A2.52926 2.60144 0 1 1 25.96 86.19 L27.02
								 87.28 L27.85 88.05 L29.8 90.06 A2.52926 2.60144 -180 0 0 33.38 86.38 L31.42 84.37 L30.18 83.1 L24.23
								 76.98 A2.52926 2.60144 0 1 1 27.81 73.3 L30.42 75.98 A2.52926 2.60144 0 1 1 33.99 72.3 L40.76 79.26
								 A20.3537 20.9345 -180 0 0 34.8 65.38 A20.3602 20.9413 -180 0 0 22.42 59.34 L25.45 62.46 A3.19132
								 3.28239 0 0 1 20.94 67.1 L18.87 64.96 A3.19132 3.28239 -180 0 0 14.35 69.61 L18.44 73.81 A3.19132
								 3.28239 0 0 1 13.93 78.45 L9.44 73.84 A3.19017 3.2812 0 0 1 4.28 77.52 L7.55 80.88 A3.19132 3.28239
								 0 0 1 3.04 85.52 L0 82.4 A20.357 20.9379 -180 0 0 5.88 95.13 C11.23 100.63 18.81 102.44 25.63 100.57
								 L22.8 97.66 A2.53137 2.60361 0 0 1 22.8 93.98 Z" class="st3"/>
				</g>
				<g id="shape17562-9" transform="translate(2.43805E-13,-14.843)">
					<title>path10</title>
					<path d="M41.36 81.14 L34.6 74.18 A2.52926 2.60144 -180 1 0 31.02 77.85 L28.41 75.17 A2.52926 2.60144 -180 1
								 0 24.83 78.85 L30.79 84.97 L32.02 86.25 L33.98 88.26 A2.52926 2.60144 0 0 1 30.4 91.94 L28.45 89.92
								 L27.62 89.15 L26.56 88.06 A2.52926 2.60144 -180 1 0 22.98 91.74 L26.98 95.85 A2.52926 2.60144 -180
								 0 0 23.4 99.53 L26.23 102.44 A20.3428 20.9233 -180 0 0 35.4 97 A20.4007 20.9829 -180 0 0 41.36 81.14
								 ZM8.15 87.39 A3.19017 3.2812 -180 0 0 8.15 82.75 L4.88 79.39 A3.19017 3.2812 -180 1 0 10.04 75.71
								 L14.53 80.32 A3.19132 3.28239 -180 0 0 19.04 75.68 L14.95 71.48 A3.19132 3.28239 0 1 1 19.46 66.83
								 L21.54 68.97 A3.19132 3.28239 -180 0 0 26.05 64.33 L23.02 61.21 C17.12 60.59 11 62.61 6.48 67.26
								 C1.96 71.91 0 78.2 0.6 84.27 L3.63 87.39 A3.19017 3.2812 -180 0 0 8.15 87.39 Z" class="st4"/>
				</g>
				<g id="shape17563-11" transform="translate(1.67047,-7.12875)">
					<title>path12</title>
					<path d="M19.27 102.44 C11.99 102.44 5.15 99.53 0 94.23 A1.9012 1.95545 0 1 1 2.69 91.47 A23.2926 23.9573 -180
								 0 0 19.27 98.53 A23.2926 23.9573 -180 0 0 35.85 91.47 C40.28 86.91 42.72 80.86 42.72 74.42 C42.72
								 67.97 40.28 61.92 35.85 57.36 A1.9012 1.95545 0 0 1 38.54 54.6 C43.68 59.89 46.52 66.93 46.52 74.42
								 C46.52 81.9 43.68 88.94 38.54 94.23 C33.39 99.53 26.55 102.44 19.27 102.44 Z" class="st2"/>
				</g>
			</g>
		</g>
	</g>
</svg>
